images/icon/smartphone.svg

<svg width="12" height="15" viewBox="0 0 12 15" fill="none" xmlns="http://www.w3.org/2000/svg">
<path d="M9.39789 0H1.65845C0.743924 0 0 0.628103 0 1.40025V13.5357C0 14.3079 0.743924 14.936 1.65845 14.936H9.39789C10.3124 14.936 11.0563 14.3079 11.0563 13.5357V1.40025C11.0563 0.628103 10.3124 0 9.39789 0ZM1.65845 0.933498H9.39789C9.70291 0.933498 9.9507 1.14271 9.9507 1.40025V11.202H1.10563V1.40025C1.10563 1.14271 1.35343 0.933498 1.65845 0.933498ZM9.39789 14.0025H1.65845C1.35343 14.0025 1.10563 13.7933 1.10563 13.5357V12.1355H9.9507V13.5357C9.9507 13.7933 9.70291 14.0025 9.39789 14.0025Z" fill="#757575"/>
<path d="M2.60241 12.7389C2.8183 12.9213 2.8183 13.2169 2.60241 13.3992C2.38651 13.5816 2.03651 13.5816 1.82061 13.3992C1.60472 13.2169 1.60472 12.9213 1.82061 12.7389C2.03651 12.5566 2.38651 12.5566 2.60241 12.7389Z" fill="#757575"/>
</svg>

<svg width="12" height="15" fill="none" xmlns="http://www.w3.org/2000/svg"><path d="M9.398 0h-7.74C.744 0 0 .628 0 1.4v12.136c0 .772.744 1.4 1.658 1.4h7.74c.914 0 1.658-.628 1.658-1.4V1.4c0-.772-.744-1.4-1.658-1.4zm-7.74.933h7.74c.305 0 .553.21.553.467v9.802H1.106V1.4c0-.257.247-.467.552-.467zm7.74 13.07h-7.74c-.305 0-.552-.21-.552-.467v-1.4H9.95v1.4c0 .257-.248.466-.553.466z" fill="#757575"/><path d="M2.602 12.739a.418.418 0 010 .66.627.627 0 01-.781 0 .418.418 0 010-.66.627.627 0 01.781 0z" fill="#757575"/></svg>
